X: 1
T: Sv\"ardsj\"ovisan
O: efter Viksta-Lasse
S: Peter "Puma" Hedlund at ANA Stmma East, 1999
Z: from a transcription by Matt Fichtenbaum
M: 3/4
L: 1/8
K: Gm
|: "Gm"(de) d2 "D7"c2 | "Gm"B2 G2 B2 | "D7"A2 D2 ^F2 | "Gm"G4 "F7"F2 \
| "Bb"d2 B2 d2 | f4 d2 | "Cm"e2 c2 c2 | "D7"d4 d2 :|
|: "Gm"g2 (g^f) ga | "Bb"f2 d2 B2 | "Cm"e2 c2 c2 | "D7"d4- dc \
| "Gm"B2 G3 A | B3 B cB | "D7"A2 D2 ^F2 | "Gm"G6 :|
